!!!!SEGMENT: pl-kk--kk-i-1--014-003_certon-pierre--missa-patrem.krn
!!!cenid: 15xx:725
!!!COM: Certon, Pierre
!!!COM-rismid: pe30006023
!!!CDT: ~1510-1572/02/23
!!!CNT: French
!!!OPR: [Missa]
!!!OTL: Patrem
!!!OMV: 003
!!!PDT:
!!!AGN: Sacred; Mass
!!!SMS-siglum: PL-Kk
!!!SMS-shelfmark: Kk.I.1
!!!SMS-shelfwork: 014-003 M
!!!SMS-variant:
!!!SMS-altvar:
!!!NIFC-rismid: 300257968
!!!URL-scan: http://repozytorium.nifc.pl/skany/pl-kk-nut--i-1
!!!ONB-nifc: UWAGA: Cantus (s. 82r-90r, skan 0084-0092), Altus (s. 79r-86v, skan 0271-0279), Tenor (s. 76v-83r, skan 0466-0472), Bassus (s. 76v-85v, skan 0638-0645). Części Mszy: 1. Kyrie, 2. Et in terra, 3. Patrem, 4. Sanctus, 5. Agnus Dei
!!!AIN: 1 alto 1 bass 1 soprn 1 tenor
!!!key:
**kern	**text	**kern	**text	**kern	**text	**kern	**text
*part4	*part4	*part3	*part3	*part2	*part2	*part1	*part1
*staff4	*staff4	*staff3	*staff3	*staff2	*staff2	*staff1	*staff1
*I"BASSVS	*	*I"TENOR	*	*I"ALTVS	*	*I"CANTVS	*
*I'B	*	*I'T	*	*I'A	*	*I'S	*
*Ibass	*	*Itenor	*	*Ialto	*	*Isoprn	*
*ICvox	*	*ICvox	*	*ICvox	*	*ICvox	*
*clefF4	*	*clefC4	*	*clefC4	*	*clefC4	*
*k[]	*	*k[]	*	*k[]	*	*k[]	*
*d:	*	*d:	*	*d:	*	*d:	*
*M2/1	*	*M2/1	*	*M2/1	*	*M2/1	*
*met(C|)	*	*met(C|)	*	*met(C|)	*	*met(C|)	*
=1-	=1-	=1-	=1-	=1-	=1-	=1-	=1-
*stria6	*	*stria6	*	*stria6	*	*stria6	*
1rD	.	0rF	.	1.D	Pa-	00r	.
1.D	Pa-	.	.	.	.	.	.
.	.	.	.	2D/	-trem	.	.
=2-	=2-	=2-	=2-	=2-	=2-	=2-	=2-
.	.	1.D	Pa-	2F/	om-	.	.
2D/	-trem	.	.	2F/	-ni-	.	.
2GG/	om-	.	.	2G/	-po-	.	.
2GG/	-ni-	2D/	-trem	2G/	-ten-	.	.
=3-	=3-	=3-	=3-	=3-	=3-	=3-	=3-
*	*	*	*	*lig	*	*	*
1D	-po-	2F/	om-	1A	-tem	0r	.
.	.	2F/	-ni-	.	.	.	.
1BB	-ten-	2G/	-po-	1D	.	.	.
.	.	2G/	-ten-	.	.	.	.
*	*	*	*	*Xlig	*	*	*
=4-	=4-	=4-	=4-	=4-	=4-	=4-	=4-
1AA	-tem	1A	-tem	2E/	.	1A	Fac-
.	.	.	.	2e\	fac-	.	.
2rBB	.	2rF	.	2c\	-to-	2A/	-to-
2AA/	fac-	2E/	fac-	2c\	-rem	2A/	-rem
=5-	=5-	=5-	=5-	=5-	=5-	=5-	=5-
2AA/	-to-	2E/	-to-	1.A	coe-	2c\	coe-
*custos:D	*	*	*	*	*	*	*
2AA/	-re(m)	2E/	-rem	.	.	2c\	-li
!LO:LB:g=original	!	!	!	!	!	!	!
1D	coe-	2F/	coe-	.	.	2d\	et
.	.	2F/	-li	2B\	-li	2d\	t(er)-
=6-	=6-	=6-	=6-	=6-	=6-	=6-	=6-
2C/	-li	2G/	(et)	1c	et	00e	-rae
2AA/	et	1A	ter-	.	.	.	.
1E	ter-	.	.	1B	ter-	.	.
*	*	*custos:A	*	*	*	*	*
.	.	2G/	-rae	.	.	.	.
!	!	!LO:LB:g=original	!	!	!	!	!
=7-	=7-	=7-	=7-	=7-	=7-	=7-	=7-
*	*	*lig	*	*	*	*	*
2AA/	-r(ae)	1A	.	2A/	-r(ae)	.	.
1A	Vi-	.	.	2A/	vi-	.	.
.	.	1E	.	2c\	-ſi-	.	.
*	*	*	*	*custos:c	*	*	*
2G\	-ſi-	.	.	2B\	-bi-	.	.
!	!	!	!	!LO:LB:g=original	!	!	!
*	*	*Xlig	*	*	*	*	*
=8-	=8-	=8-	=8-	=8-	=8-	=8-	=8-
*	*	*	*	*	*	*custos:A	*
2A\	-bi-	1rA	.	2c\	-li-	1rf	.
4A\	-li-	.	.	2c\	-um	.	.
4A\	-um	.	.	.	.	.	.
!	!	!	!	!	!	!LO:LB:g=original	!
2G\	o(m-	2r	.	2d\	om-	2r	.
2F\	-n)i-	1A\	Vi-	2d\	-ni-	2A/	Vi-
=9-	=9-	=9-	=9-	=9-	=9-	=9-	=9-
1E	-um	.	.	2e\	-um	2c\	-ſi-
.	.	2G/	-si-	1e	et	2B\	-bi-
1r	.	2A/	-bi-	.	.	2c\	-li-
.	.	4A/	-li-	4d\	.	2c\	-um
.	.	4A/	-um	4c\	.	.	.
=10-	=10-	=10-	=10-	=10-	=10-	=10-	=10-
2r	.	2G/	o(m-	2B/	in-	2d\	o(m-
1D	et	2F/	-n)i-	2A/	-ui-	2d\	-n)i-
.	.	2E/	-um	1c	-ſi-	2e\	-um
2C/	in-	2E/	et	.	.	2e\	(et)
=11-	=11-	=11-	=11-	=11-	=11-	=11-	=11-
2.D/	-ui-	2D/	in-	2.A/	-bi-	2f\	in-
.	.	2F/	-vi-	.	.	2f\	-ui-
4D/	-ſi-	.	.	4B/	-li-	.	.
2C/	-bi-	4G/	-si-	2c\	-um	2e\	-ſi-
.	.	4F/	.	.	.	.	.
2BB/	-li-	4E/	.	2G/	.	1d\	-bi-
.	.	4D/	.	.	.	.	.
=12-	=12-	=12-	=12-	=12-	=12-	=12-	=12-
1AA	-um	2E/	-bi-	1A	.	.	.
.	.	2E/	-li-	.	.	2c\	-li-
1D	.	0D	-um	2r	.	2d\	-um
.	.	.	.	1A\	et	1d\	Et
=13-	=13-	=13-	=13-	=13-	=13-	=13-	=13-
2r	.	.	.	.	.	.	.
1D	et	.	.	2A/	in	2d\	in
.	.	2rF	.	2A/	u-	2d\	v-
*custos:D	*	*	*	*	*	*	*
2D/	in	1A\	Et	2A/	-num	2d\	-num
!LO:LB:g=original	!	!	!	!	!	!	!
=14-	=14-	=14-	=14-	=14-	=14-	=14-	=14-
2D/	v-	.	.	2d\	d(o-	1.f	do-
*	*	*custos:A	*	*	*	*	*
2D/	-num	2A\	in	2d\	-mi)-	.	.
!	!	!LO:PB:g=original	!	!	!	!	!
2.F\	do-	2A/	v-	1c	-num	.	.
.	.	2A/	-num	.	.	2f\	-(m)i-
4F\	-mi-	.	.	.	.	.	.
=15-	=15-	=15-	=15-	=15-	=15-	=15-	=15-
*	*	*	*	*	*	*custos:e	*
1C	-nu(m)	2c\	do-	2rF	.	1e	-(n)um
*	*	*	*	*custos:c	*	*	*
.	.	2c\	-mi-	2G/	Je-	.	.
!	!	!	!	!LO:LB:g=original	!	!LO:LB:g=original	!
1C	Je-	2G/	-nu(m)	1.c	-ſum	1e	Je-
.	.	2A/	Je-	.	.	.	.
=16-	=16-	=16-	=16-	=16-	=16-	=16-	=16-
1D	-ſum	4A/	-ſum	.	.	2.d\	-sum
.	.	4G/	.	.	.	.	.
.	.	4F/	.	4B/	.	.	.
.	.	4E/	.	4A/	.	4c\	.
1D	Chr(i-	1F	Chr(i-	1B	Chr(i-	4d\	.
.	.	.	.	.	.	4e\	.
.	.	.	.	.	.	1f\	.
=17-	=17-	=17-	=17-	=17-	=17-	=17-	=17-
0C	-st)um	0G	-st)um	1c	-st)um	.	.
.	.	.	.	.	.	4e\	.
.	.	.	.	.	.	4d\	.
.	.	.	.	2rd	.	1e	chr(i-
.	.	.	.	1c\	fi-	.	.
=18-	=18-	=18-	=18-	=18-	=18-	=18-	=18-
2r	.	0F	.	.	.	1f	-st)um
1F	fi-	.	.	2A/	-li-	.	.
.	.	.	.	2.A/	-um	2rf	.
2D/	-li-	.	.	.	.	1f\	fi-
.	.	.	.	4G/	.	.	.
=19-	=19-	=19-	=19-	=19-	=19-	=19-	=19-
2D/	-um	2r	.	4F/	.	.	.
.	.	.	.	4E/	.	.	.
2C/	de-	2c\	fi-	1G	.	2e\	-li-
1D	-i	2B\	-li-	.	.	1d	-um
.	.	1A\	-um	1F/	De-	.	.
=20-	=20-	=20-	=20-	=20-	=20-	=20-	=20-
1BB	V-	.	.	.	.	1d	de-
.	.	2G/	de-	4E/	.	.	.
.	.	.	.	4D/	.	.	.
2.AA/	-ni-	2A/	-i	2E/	-i	2c\	-i
.	.	2.A/	v	1c\	v-	2f\	u-
4BB/	.	.	.	.	.	.	.
=21-	=21-	=21-	=21-	=21-	=21-	=21-	=21-
2C/	.	.	.	.	.	2e\	-ni-
.	.	4G/	ni-	.	.	.	.
2D/	-ge-	2F/	-ge-	2B\	-ni-	1d	-ge-
1AA	-ni-	2E/	-ni-	2A/	-ge-	.	.
*	*	*custos:D	*	*	*	*	*
.	.	2E/	.	2A/	-ni-	2c\	-ni-
!	!	!LO:LB:g=original	!	!	!	!	!
=22-	=22-	=22-	=22-	=22-	=22-	=22-	=22-
1D	-tum	0D	-tum	0F	-tum	0d	-tum
2r	.	.	.	.	.	.	.
*custos:F	*	*	*	*	*	*	*
2D\	et	.	.	.	.	.	.
!LO:PB:g=original	!	!	!	!	!	!	!
=23-	=23-	=23-	=23-	=23-	=23-	=23-	=23-
1F	ex	2rF	.	00r	.	00rf	.
.	.	2A/	Et	.	.	.	.
2E\	pa-	1c	ex	.	.	.	.
2C/	-tre	.	.	.	.	.	.
=24-	=24-	=24-	=24-	=24-	=24-	=24-	=24-
1E	na-	2B\	p(at)-	.	.	.	.
.	.	2G/	-re	.	.	.	.
2D/	-tum	1B	na-	.	.	.	.
2D/	an-	.	.	.	.	.	.
=25-	=25-	=25-	=25-	=25-	=25-	=25-	=25-
2F\	-te	2A/	-tu(m)	00r	.	0r	.
1F	o(m-	2A/	an-	.	.	.	.
.	.	2c\	-te	.	.	.	.
2E\	-n)i-	2c\	o(m-	.	.	.	.
=26-	=26-	=26-	=26-	=26-	=26-	=26-	=26-
4D/	-a	2B\	-n)i-	.	.	1r	.
4C/	.	.	.	.	.	.	.
4BB/	.	2A\	-a	.	.	.	.
4AA/	.	.	.	.	.	.	.
2BB/	ſe-	2A\	ſe-	.	.	2rd	.
*	*	*	*	*	*	*custos:f	*
2BB/	-cu-	2G/	-cu-	.	.	2d\	De-
!	!	!	!	!	!	!LO:PB:g=original	!
=27-	=27-	=27-	=27-	=27-	=27-	=27-	=27-
0AA	-la	0A	-la	2rF	.	1f	-um
.	.	.	.	2A/	De-	.	.
*	*	*	*	*custos:B	*	*	*
.	.	.	.	1c	-um	2e\	de
.	.	.	.	.	.	2c\	De-
!	!	!	!	!LO:LB:g=original	!	!	!
=28-	=28-	=28-	=28-	=28-	=28-	=28-	=28-
00rBB	.	0rA	.	2B\	de	2d\	-o
.	.	.	.	2G/	de-	2d\	lu-
.	.	.	.	2A/	-o	1f	-men
.	.	.	.	2A/	lu-	.	.
=29-	=29-	=29-	=29-	=29-	=29-	=29-	=29-
.	.	2rF	.	2c\	-men	1e	de
.	.	2E/	lu-	1c	de	.	.
.	.	2.G/	-men	.	.	2.d\	lu-
.	.	.	.	2.B/	lu-	.	.
.	.	4G/	de	.	.	8c\L	.
.	.	.	.	.	.	8B\J	.
=30-	=30-	=30-	=30-	=30-	=30-	=30-	=30-
0rD	.	2F/	lu-	.	.	2c\	.
.	.	.	.	4A/	.	.	.
*	*	*custos:E	*	*	*	*	*
.	.	2D/	-mi-	1A	-mi-	2d\	.
!	!	!LO:LB:g=original	!	!	!	!	!
.	.	1E	-ne	.	.	1B	-mi-
.	.	.	.	2G/	-ne	.	.
=31-	=31-	=31-	=31-	=31-	=31-	=31-	=31-
2r	.	2rF	.	2A/	.	2A/	-ne
1D	De-	1F	de-	1A	De-	1d	De-
2D/	-um	2F/	-um	2A/	-um	2d\	-um
=32-	=32-	=32-	=32-	=32-	=32-	=32-	=32-
1D	ve-	1F	ve-	2.A/	ve-	1d	ve-
.	.	.	.	4B\	-rum	.	.
2.C/	.	2G/	-ru(m)	1c	.	1e	.
.	.	1E/	de	.	.	.	.
4BB/	-rum	.	.	.	.	.	.
=33-	=33-	=33-	=33-	=33-	=33-	=33-	=33-
2AA/	.	.	.	2c\	de	2c\	-rum
2GG/	de	2G/	De-	2B\	de-	2d\	de
2.FF/	De-	2.A/	-o	2.c\	-o	2f\	De-
.	.	.	.	.	.	1e\	-o
*custos:AA	*	*	*	*	*	*	*
4GG/	-o	4G/	ve-	4B/	ve-	.	.
!LO:LB:g=original	!	!	!	!	!	!	!
=34-	=34-	=34-	=34-	=34-	=34-	=34-	=34-
2AA/	.	2F/	.	2A/	.	.	.
2BB/	.	4E/	.	2G/	.	1d	ver-
.	.	4D/	.	.	.	.	.
1AA	ve-	1E	.	1A	.	.	.
*	*	*	*	*	*	*custos:d	*
.	.	.	.	.	.	2c\	.
!	!	!	!	!	!	!LO:LB:g=original	!
=35-	=35-	=35-	=35-	=35-	=35-	=35-	=35-
0D	-ro	0D	-ro	1F	-ro	1d	-o
.	.	.	.	2rF	.	2rd	.
*	*	*	*	*custos:F	*	*	*
.	.	.	.	2F/	ge-	2d\	ge-
!	!	!	!	!LO:PB:g=original	!	!	!
=36-	=36-	=36-	=36-	=36-	=36-	=36-	=36-
0rD	.	0rF	.	2F/	-ni-	2d\	-ni-
.	.	.	.	2F/	-tum	2d\	-tum
.	.	.	.	2E/	.	1c	non
.	.	.	.	1A\	non	.	.
=37-	=37-	=37-	=37-	=37-	=37-	=37-	=37-
1rD	.	1rF	.	.	.	1B	fac-
.	.	.	.	2G/	fac-	.	.
2r	.	2rF	.	1A	-tu(m)	0A	-tu(m)
2D/	con-	2F/	con-	.	.	.	.
=38-	=38-	=38-	=38-	=38-	=38-	=38-	=38-
2D/	-ſub-	2F/	-ſub-	0r	.	.	.
2D/	-stan-	2F/	-stan-	.	.	.	.
2C/	-ti-	2E/	-ci-	.	.	1r	.
2C/	-a-	2A/	-a-	.	.	.	.
=39-	=39-	=39-	=39-	=39-	=39-	=39-	=39-
2BB/	-le(m)	2A/	-le(m)	1r	.	2r	.
*	*	*custos:A	*	*	*	*	*
2BB/	p(at)-	2G/	pa-	.	.	1d	per
!	!	!LO:LB:g=original	!	!	!	!	!
1AA	-ri	2.A/	-tri	2r	.	.	.
.	.	.	.	1A\	per	2c\	quem
.	.	4G/	.	.	.	.	.
=40-	=40-	=40-	=40-	=40-	=40-	=40-	=40-
1rBB	.	2F/	.	.	.	2d\	o(m-
.	.	2E/	.	2G/	quem	2e\	-n)i-
2rBB	.	1rF	.	2A/	o(m	2c\	-a
1D/	per	.	.	2B\	n)i-	2d\	fa-
=41-	=41-	=41-	=41-	=41-	=41-	=41-	=41-
.	.	2rF	.	4c\	-a	2A/	.
.	.	.	.	4B\	.	.	.
2C/	quem	1A	per	4A/	.	2c\	.
.	.	.	.	4G/	.	.	.
2D/	o(m-	.	.	2F/	.	1B	-cta
2E/	-n)i-	2G/	que(m)	2.E/	fac-	.	.
=42-	=42-	=42-	=42-	=42-	=42-	=42-	=42-
2C/	-a	2A/	o(m-	.	.	2A,</	ſunt
.	.	.	.	4D/	-ta	.	.
2D/	fac-	2B/	-n)i-	1F	.	2d\	fac-
2AA/	-ta	2c\	-a	.	.	2e\	-ta
2C/	ſunt	1A\	fac-	1E/	.	2c\	.
=43-	=43-	=43-	=43-	=43-	=43-	=43-	=43-
*custos:AA	*	*	*	*	*	*custos:c	*
1BB	.	.	.	.	.	1d	.
.	.	2G/	-ta	2D/	.	.	.
!LO:LB:g=original	!	!	!	!	!	!LO:LB:g=original	!
0.AA	.	2A,</	ſu(n)t	1E	ſunt	2c,<\	ſunt
.	.	1A,<\	Qui	.	.	1e\	Qui
=44-	=44-	=44-	=44-	=44-	=44-	=44-	=44-
.	.	.	.	0rA	.	.	.
.	.	2A/	p(ro)p-	.	.	2f\	p(ro)p-
.	.	2.c\	-ter	.	.	2.e\	-ter
.	.	4B/	nos	.	.	4d\	nos
=45-	=45-	=45-	=45-	=45-	=45-	=45-	=45-
2rBB	.	2A/	ho-	1rA	.	2c\	ho-
2E\	et	2G/	-(m)i-	.	.	2B\	-(m)i-
2F\	p(ro)p-	1A	-(n)es	2rF	.	1A	-(n)es
*	*	*	*	*custos:c	*	*	*
2F\	-ter	.	.	2A/	et	.	.
!	!	!	!	!LO:LB:g=original	!	!	!
=46-	=46-	=46-	=46-	=46-	=46-	=46-	=46-
2.E\	n(os-	0r	.	2.c\	pro-	2r	.
.	.	.	.	.	.	2e\	de-
4D/	-t)ram	.	.	4B/	-pter	.	.
2C/	ſa-	.	.	2A/	n(os-	2e\	-ſcen-
2BB/	-lu-	.	.	2G/	-t)ram	2d\	-dit
=47-	=47-	=47-	=47-	=47-	=47-	=47-	=47-
1AA	-tem	2r	.	2A/	ſa-	2c\	de
*	*	*custos:A	*	*	*	*	*
.	.	2A/	de-	2A/	-lu-	2A/	coe-
!	!	!LO:PB:g=original	!	!	!	!	!
1rBB	.	2A/	-ſcen-	1E	-tem	2B/	-lis
*	*	*	*	*	*	*	*ij
.	.	2G/	.	.	.	2e\	de-
=48-	=48-	=48-	=48-	=48-	=48-	=48-	=48-
00rD	.	2F/	-dit	2rF	.	2c\	-ſcen-
.	.	2D/	de	2A/	de-	2d\	-dit
.	.	2E/	coe-	2A/	-ſcen-	1B	de
.	.	2e\	-lis	2G/	-dit	.	.
=49-	=49-	=49-	=49-	=49-	=49-	=49-	=49-
.	.	2c\	.	2F/	.	2A/	.
.	.	2d\	.	2D/	de	1A	coe-
.	.	1B	.	1E	coe-	.	.
*	*	*	*	*	*	*custos:A	*
.	.	.	.	.	.	2G/	.
!	!	!	!	!	!	!LO:LB:g=original	!
=50-	=50-	=50-	=50-	=50-	=50-	=50-	=50-
2rBB	.	2A/	.	1.F	-lis	2A/	-lis
*	*	*	*	*	*	*	*Xij
2D/	de-	2A/	.	.	.	1f	de
2D/	-ſcen-	2D/	de	.	.	.	.
2C/	.	2E/	.	2G/	.	1e\	.
=51-	=51-	=51-	=51-	=51-	=51-	=51-	=51-
*	*	*	*	*lig	*	*	*
2BB/	-dit	2F/	.	1B	.	.	.
2GG/	de	2G/	.	.	.	1d	coe-
1AA	coe-	1E	coe-	1A	.	.	.
.	.	.	.	.	.	2c\	-lis
*	*	*	*	*Xlig	*	*	*
=52-	=52-	=52-	=52-	=52-	=52-	=52-	=52-
*	*	*custos:D	*	*	*	*custos:d	*
!LO:N:vis=00	!	!LO:N:vis=00	!	!LO:N:vis=00	!	!LO:N:vis=00	!
0D\;>	-lis	0D;>	-lis	0A\;<	.	0d;<	.
!	!	!LO:LB:g=original	!	!	!	!LO:PB:g=original	!
=53-	=53-	=53-	=53-	=53-	=53-	=53-	=53-
1D	Et	1D	Et	1A	Et	1d	Et
2D/	in-	1.F	in-	2A/	in-	2d\	in-
2D/	-car-	.	.	2A/	-car-	2d\	-car-
=54-	=54-	=54-	=54-	=54-	=54-	=54-	=54-
*custos:B	*	*	*	*custos:D	*	*	*
1D	-na-	.	.	1A	-na-	1d	-na-
.	.	2D/	-car-	.	.	.	.
!LO:LB:g=original	!	!	!	!LO:LB:g=original	!	!	!
1BB	-tus	2F/	-na-	1D	-tus	1d	-tus
.	.	2G/	-tus	.	.	.	.
=55-	=55-	=55-	=55-	=55-	=55-	=55-	=55-
1AA	eſt	4A/	est	2E/	eſt	1c	est
.	.	4G/	.	.	.	.	.
.	.	4F/	.	2A/	.	.	.
.	.	4E/	.	.	.	.	.
*	*	*lig	*	*	*	*	*
2rGG	.	1F	.	1c	de	2r	.
2AA/	de	.	.	.	.	2A/	de
=56-	=56-	=56-	=56-	=56-	=56-	=56-	=56-
2AA/	Spi-	1E	.	2A/	Spi-	2c/	Spi-
2AA/	-ri-	.	.	2.c\	-ri-	2A/	-ri-
*	*	*Xlig	*	*	*	*	*
1AA	-tu	2rF	.	.	.	1c	-tu
.	.	.	.	4B/	-tu,	.	.
.	.	2A/	de	4A/	.	.	.
.	.	.	.	4G/	.	.	.
=57-	=57-	=57-	=57-	=57-	=57-	=57-	=57-
1D	ſ(an)c-	2A/	ſpi-	1F	.	1d	ſanc-
.	.	2A/	-ri-	.	.	.	.
2C/	-to	1c	-tu	2E/	.	0e	-to
2AA/	.	.	.	1A\	ſanc-	.	.
=58-	=58-	=58-	=58-	=58-	=58-	=58-	=58-
1E	.	1B	sanc-	.	.	.	.
.	.	.	.	2G/	.	.	.
*	*	*	*	*lig	*	*	*
1AA	.	2A,</	-to	1A	-to	1.e	ex
.	.	1A\	ex	.	.	.	.
=59-	=59-	=59-	=59-	=59-	=59-	=59-	=59-
1.AA	ex	.	.	1E	.	.	.
.	.	2A/	ma-	.	.	2e\	Ma-
*	*	*	*	*Xlig	*	*	*
*	*	*custos:G	*	*	*	*	*
.	.	1c	-ri-	1rA	.	1e	-ri-
2AA/	Ma-	.	.	.	.	.	.
!	!	!LO:LB:g=original	!	!	!	!	!
=60-	=60-	=60-	=60-	=60-	=60-	=60-	=60-
2C/	-ri-	2G/	-a	1.e	ex	1c	-a
2AA/	-a	2A/	vir-	.	.	.	.
2.C/	vir-	2E/	-gi-	.	.	1c	vir-
.	.	1A\	-ne	2e\	Ma-	.	.
4D/	-gi-	.	.	.	.	.	.
=61-	=61-	=61-	=61-	=61-	=61-	=61-	=61-
*	*	*	*	*	*	*custos:A	*
1E	-ne	.	.	1e	-ri-	1B	-gi-
.	.	2G/	.	.	.	.	.
!	!	!	!	!	!	!LO:LB:g=original	!
2.AA/	.	2.A/	.	1.c	-a	4A/	-ne
.	.	.	.	.	.	4B/	.
.	.	.	.	.	.	4c\	.
4BB/	.	8G/L	.	.	.	4d\	.
.	.	8F/J	.	.	.	.	.
=62-	=62-	=62-	=62-	=62-	=62-	=62-	=62-
2C/	.	2E/	.	.	.	2e\	.
2.D/	.	1F	.	2.B/	vir-	1d	.
*custos:AA	*	*	*	*	*	*	*
4C/	.	.	.	4A/	.	.	.
!LO:LB:g=original	!	!	!	!	!	!	!
2AA/	.	1E/	.	1A\	-gi-	2c\	.
=63-	=63-	=63-	=63-	=63-	=63-	=63-	=63-
1BB	.	.	.	.	.	1d	.
.	.	2D/	.	2G/	-ne	.	.
1AA	.	1E	.	0A	.	1c	(et)
=64-	=64-	=64-	=64-	=64-	=64-	=64-	=64-
0AA	et	1.E	et	.	.	0c	ho-
*	*	*	*	*custos:D	*	*	*
.	.	.	.	1rA	.	.	.
.	.	2F/	ho-	.	.	.	.
!	!	!	!	!LO:LB:g=original	!	!	!
=65-	=65-	=65-	=65-	=65-	=65-	=65-	=65-
1GG	ho-	1G	-mo	1D	et	1B	-mo
1FF	-mo	1C	fac-	1.F	ho-	2.A/	.
.	.	.	.	.	.	4G/	.
=66-	=66-	=66-	=66-	=66-	=66-	=66-	=66-
1BB	fac-	1.D	-tus	.	.	4F/	.
!	!	!	!	!	!	!LO:TX:t=P:problem=poprawka wysokości	!
.	.	.	.	.	.	4D/	.
.	.	.	.	2D/	-mo	1f	.
1BB	-tus	.	.	2.F/	fac-	.	.
.	.	1F/	.	.	.	4e\	fac-
.	.	.	.	4G/	-tus	4d\	.
=67-	=67-	=67-	=67-	=67-	=67-	=67-	=67-
*lig	*	*	*	*	*	*	*
0AA	eſt	.	.	00A;>	eſt	2c\	-tus
.	.	4E/	.	.	.	1d	.
*	*	*custos:E	*	*	*	*	*
.	.	4D/	.	.	.	.	.
!	!	!LO:LB:g=original	!	!	!	!	!
.	.	1E	.	.	.	.	.
.	.	.	.	.	.	2c\	est.
=68-	=68-	=68-	=68-	=68-	=68-	=68-	=68-
*	*	*custos:D	*	*	*	*custos:d	*
!LO:N:vis=00	!	!LO:N:vis=00	!	!	!	!LO:N:vis=00	!
0D\;>	.	0D;>	est.	.	.	0d;<	.
*Xlig	*	*	*	*	*	*	*
!	!	!LO:LB:g=original	!	!	!	!LO:LB:g=original	!
=69-	=69-	=69-	=69-	=69-	=69-	=69-	=69-
!LO:TX:a:t=Tria:color=red	!	!LO:TX:a:t=Crucifixus tacet:color=red	!	!LO:TX:a:t=Tria:color=red	!	!LO:TX:b:t=Trium\nCruc.:color=red	!
0D	Cru-	0ryy	.	00r	.	00rd	.
=70-	=70-	=70-	=70-	=70-	=70-	=70-	=70-
1F	-ci-	0ryy	.	.	.	.	.
1E	-fi-	.	.	.	.	.	.
=71-	=71-	=71-	=71-	=71-	=71-	=71-	=71-
1D	-xus	0ryy	.	0A	Cru-	00rd	.
2r	.	.	.	.	.	.	.
1D\	e-	.	.	.	.	.	.
=72-	=72-	=72-	=72-	=72-	=72-	=72-	=72-
.	.	0ryy	.	1c	-ci-	.	.
2C/	-ti-	.	.	.	.	.	.
2D/	-am	.	.	1B	-fi-	.	.
2E/	.	.	.	.	.	.	.
=73-	=73-	=73-	=73-	=73-	=73-	=73-	=73-
2.F\	pro	0ryy	.	1A	-xus	0rf	.
4E/	.	.	.	.	.	.	.
2D/	no-	.	.	2r	.	.	.
*custos:BB	*	*	*	*	*	*	*
2C/	.	.	.	1A\	e-	.	.
!LO:LB:g=original	!	!	!	!	!	!	!
=74-	=74-	=74-	=74-	=74-	=74-	=74-	=74-
1BB	.	0ryy	.	.	.	2rd	.
.	.	.	.	2G/	-ti-	1d	E-
1AA	-bis	.	.	2.A/	-am	.	.
.	.	.	.	.	.	2c\	-ti-
.	.	.	.	4G/	.	.	.
=75-	=75-	=75-	=75-	=75-	=75-	=75-	=75-
0rBB	.	0ryy	.	2F/	.	2d\	-am
*	*	*	*	*custos:D	*	*	*
.	.	.	.	2E/	pro	2e\	pro
!	!	!	!	!LO:PB:g=original	!	!	!
.	.	.	.	4D/	.	2.f\	.
.	.	.	.	4C/	no-	.	.
.	.	.	.	4D/	-bis	.	.
.	.	.	.	4E/	.	4e\	no-
=76-	=76-	=76-	=76-	=76-	=76-	=76-	=76-
2rGG	.	0ryy	.	4F/	.	2d\	.
.	.	.	.	4G/	.	.	.
2AA/	ſub	.	.	1A	.	2c\	.
2D/	Pon-	.	.	.	.	1B	.
2E\	-ti-	.	.	2G/	.	.	.
=77-	=77-	=77-	=77-	=77-	=77-	=77-	=77-
1.F	-o	0ryy	.	1A	.	2A/	-bis
.	.	.	.	.	.	2D/	ſub
.	.	.	.	1rA	.	2A/	Pon-
4E/	.	.	.	.	.	2B\	-ti-
4D/	.	.	.	.	.	.	.
=78-	=78-	=78-	=78-	=78-	=78-	=78-	=78-
2C/	.	0ryy	.	2r	.	2c\	-o
1D	Pi-	.	.	2D/	sub	2A/	Pi-
.	.	.	.	2A/	.	4A/	-la-
.	.	.	.	.	.	4F/	.
*	*	*	*	*	*	*custos:A	*
!LO:TX:t=P:problem=poprawka wysokości	!	!	!	!	!	!	!
4C/	-la-	.	.	2B\	Pon-	2G/	.
4BB/	.	.	.	.	.	.	.
!	!	!	!	!	!	!LO:LB:g=original	!
=79-	=79-	=79-	=79-	=79-	=79-	=79-	=79-
2AA/	.	0ryy	.	2.c\	-ti-	0A	-to
2C/	.	.	.	.	.	.	.
.	.	.	.	4B/	-o	.	.
2D/	.	.	.	4A/	.	.	.
.	.	.	.	4G/	.	.	.
1F\	.	.	.	4F/	.	.	.
.	.	.	.	4E/	.	.	.
=80-	=80-	=80-	=80-	=80-	=80-	=80-	=80-
.	.	0ryy	.	2D/	.	2r	.
4E/	.	.	.	1d	.	2A/	pas-
4D/	.	.	.	.	.	.	.
1E	.	.	.	.	.	2e\	-ſus
.	.	.	.	2c\	Pi-	2e\	et
=81-	=81-	=81-	=81-	=81-	=81-	=81-	=81-
1D	-to	0ryy	.	2d\	-la-	2f\	se-
.	.	.	.	2B\	-to	2d\	-pul-
2r	.	.	.	2A/	.	1f	-tus
2D/	paſ-	.	.	1d\	.	.	.
=82-	=82-	=82-	=82-	=82-	=82-	=82-	=82-
2A\	-sus	0ryy	.	.	.	1e	eſt
*custos:B	*	*	*	*custos:d	*	*	*
2A\	et	.	.	2c\	.	.	.
!LO:LB:g=original	!	!	!	!LO:LB:g=original	!	!	!
2B\	ſe-	.	.	1d	.	2rd	.
*	*	*	*	*	*	*	*ij
2G\	-pul-	.	.	.	.	2.d\	pas-
=83-	=83-	=83-	=83-	=83-	=83-	=83-	=83-
1B	-tus	0ryy	.	00rd	.	.	.
.	.	.	.	.	.	4c\	-ſus
.	.	.	.	.	.	2d\	et
1A	.	.	.	.	.	2e\	se-
.	.	.	.	.	.	2.f\	-pul-
=84-	=84-	=84-	=84-	=84-	=84-	=84-	=84-
2F\	.	0ryy	.	.	.	.	.
.	.	.	.	.	.	4e\	.
*col	*	*	*	*	*	*	*
2.G\	.	.	.	.	.	4d\	.
.	.	.	.	.	.	4c\	.
.	.	.	.	.	.	4B/	.
4F/	.	.	.	.	.	4A/	.
*Xcol	*	*	*	*	*	*	*
4E/	.	.	.	.	.	1d\	.
4D/	.	.	.	.	.	.	.
=85-	=85-	=85-	=85-	=85-	=85-	=85-	=85-
1E	.	0ryy	.	1r	.	.	.
.	.	.	.	.	.	2c\	-tus
*lig	*	*	*	*	*	*	*
1D	eſt	.	.	2r	.	2d,<\	eſt
*	*	*	*	*	*	*	*Xij
*	*	*	*	*	*	*custos:e	*
.	.	.	.	2D/	paſ-	2f\	et
!	!	!	!	!	!	!LO:PB:g=original	!
=86-	=86-	=86-	=86-	=86-	=86-	=86-	=86-
1AA	.	0ryy	.	2A/	.	2e\	ſe-
.	.	.	.	2A/	-sus	2c\	-pul-
*Xlig	*	*	*	*	*	*	*
2rBB	.	.	.	2B/	et	2d\	.
2C/	et	.	.	2G/	se-	1e\	-tus
=87-	=87-	=87-	=87-	=87-	=87-	=87-	=87-
2BB/	se-	0ryy	.	1B	-pul-	.	.
2GG/	-pul-	.	.	.	.	2d\	.
1AA	-tus	.	.	1A	.	2c\	.
.	.	.	.	.	.	1e\	.
=88-	=88-	=88-	=88-	=88-	=88-	=88-	=88-
2BB/	.	0ryy	.	2F/	-tus	.	.
2GG/	.	.	.	2G/	.	1d	.
1AA	.	.	.	1E	eſt	.	.
.	.	.	.	.	.	2c\	.
=89-	=89-	=89-	=89-	=89-	=89-	=89-	=89-
0D	eſt	0ryy	.	1.F	.	1d	est
.	.	.	.	.	.	2r	.
.	.	.	.	4E/	.	1A\	Et
.	.	.	.	4D/	.	.	.
=90-	=90-	=90-	=90-	=90-	=90-	=90-	=90-
0r	.	0ryy	.	00D	.	.	.
.	.	.	.	.	.	2A/	re-
.	.	.	.	.	.	2B/	-ſur-
.	.	.	.	.	.	2A/	-re-
=91-	=91-	=91-	=91-	=91-	=91-	=91-	=91-
2r	.	0ryy	.	.	.	2D/	-xit
1D	et	.	.	.	.	1A	ter-
2D/	re-	.	.	.	.	2F/	-ci-
=92-	=92-	=92-	=92-	=92-	=92-	=92-	=92-
2E/	-ſur-	0ryy	.	00rA	.	2G/	-a
*custos:GG	*	*	*	*	*	*	*
2D/	-re-	.	.	.	.	2A/	di-
!LO:LB:g=original	!	!	!	!	!	!	!
2GG/	-xit	.	.	.	.	2B/	-e
*	*	*	*	*	*	*custos:F	*
1D\	ter-	.	.	.	.	2A/	ſe-
!	!	!	!	!	!	!LO:LB:g=original	!
=93-	=93-	=93-	=93-	=93-	=93-	=93-	=93-
.	.	0ryy	.	.	.	2F/	-cun-
2BB/	-ci-	.	.	.	.	2G/	.
2C/	-a	.	.	.	.	2A/	-dum
2D/	di-	.	.	.	.	2B/	.
=94-	=94-	=94-	=94-	=94-	=94-	=94-	=94-
2E/	-e	0ryy	.	00rA	.	2c\	scrip-
2D/	ſe-	.	.	.	.	1d	-tu-
1.F	-cun-	.	.	.	.	.	.
.	.	.	.	.	.	4c\	-ras
.	.	.	.	.	.	4B\	.
=95-	=95-	=95-	=95-	=95-	=95-	=95-	=95-
.	.	0ryy	.	.	.	2A/	.
2E\	-dum	.	.	.	.	2.c\	.
2C/	.	.	.	.	.	.	.
.	.	.	.	.	.	4B\	.
2D/	ſcrip-	.	.	.	.	1A\	.
=96-	=96-	=96-	=96-	=96-	=96-	=96-	=96-
1BB	-tu-	0ryy	.	2rF	.	.	.
.	.	.	.	2D/	et	2G/	.
1AA	-ras	.	.	2E/	a-	2A/	.
.	.	.	.	2F/	-ſcen-	2A/	Et
=97-	=97-	=97-	=97-	=97-	=97-	=97-	=97-
00rBB	.	0ryy	.	2G/	.	2B/	a-
.	.	.	.	2A/	-dit	2c\	-scen-
.	.	.	.	2D/	in	2d\	.
.	.	.	.	2.A/	coe-	2e\	-dit
=98-	=98-	=98-	=98-	=98-	=98-	=98-	=98-
.	.	0ryy	.	.	.	2A/	in
*	*	*	*	*custos:F	*	*	*
.	.	.	.	4G/	-lu(m)	.	.
!	!	!	!	!LO:LB:g=original	!	!	!
.	.	.	.	4F/	.	1e	coe-
.	.	.	.	4E/	.	.	.
.	.	.	.	1F	.	.	.
.	.	.	.	.	.	2d\	-lum
=99-	=99-	=99-	=99-	=99-	=99-	=99-	=99-
2rBB	.	0ryy	.	1E	.	1e	.
2AA/	ſe-	.	.	.	.	.	.
*	*	*	*	*	*	*custos:A	*
2BB/	-det	.	.	2rD	.	0rf	.
2C/	ad	.	.	2E/	ſe-	.	.
=100-	=100-	=100-	=100-	=100-	=100-	=100-	=100-
2D/	dex-	0ryy	.	2F/	-det	.	.
2E/	-te-	.	.	2G/	ad	.	.
!	!	!	!	!	!	!LO:LB:g=original	!
2C/	-ram	.	.	2A/	.	2rd	.
1D\	p(at)-	.	.	2.F/	dex-	2A/	se-
=101-	=101-	=101-	=101-	=101-	=101-	=101-	=101-
.	.	0ryy	.	.	.	2B/	-det
.	.	.	.	4E/	-te-	.	.
2C/	.	.	.	1A	-ram	2c/	.
*custos:AA	*	*	*	*	*	*	*
1BB	-ris	.	.	.	.	1d	ad
.	.	.	.	2G/	p(at)-	.	.
!LO:PB:g=original	!	!	!	!	!	!	!
=102-	=102-	=102-	=102-	=102-	=102-	=102-	=102-
1AA	.	0ryy	.	2.c\	-ris	1e	dex-
.	.	.	.	4B/	.	.	.
1rBB	.	.	.	4A/	.	2c\	-te-
.	.	.	.	4G/	.	.	.
.	.	.	.	1B\	.	2.d\	-ram,
=103-	=103-	=103-	=103-	=103-	=103-	=103-	=103-
2rBB	.	0ryy	.	.	.	.	.
.	.	.	.	.	.	4c/	pa-
2D/	et	.	.	1A	.	4B/	.
.	.	.	.	.	.	4A/	-tris
2D/	i-	.	.	.	.	1B	.
2E\	-te-	.	.	2G/	.	.	.
=104-	=104-	=104-	=104-	=104-	=104-	=104-	=104-
2F\	-rum	0ryy	.	1A	.	0A	.
2D\	ven-	.	.	.	.	.	.
*col	*	*	*	*	*	*	*
1.F	-tu-	.	.	2r	.	.	.
.	.	.	.	2A/	et	.	.
=105-	=105-	=105-	=105-	=105-	=105-	=105-	=105-
.	.	0ryy	.	2A/	i-	00rd	.
4E/	.	.	.	2B/	-te-	.	.
4D/	.	.	.	.	.	.	.
*Xcol	*	*	*	*	*	*	*
2C/	-rus	.	.	2c/	-rum	.	.
*	*	*	*	*custos:c	*	*	*
2D/	eſt	.	.	2A/	ven-	.	.
!	!	!	!	!LO:LB:g=original	!	!	!
=106-	=106-	=106-	=106-	=106-	=106-	=106-	=106-
2AA/	cum	0ryy	.	1.c	-tu-	.	.
2AA/	glo-	.	.	.	.	.	.
2.C/	-ri-	.	.	.	.	.	.
.	.	.	.	4B/	-rus	.	.
4D/	-a	.	.	4A/	.	.	.
=107-	=107-	=107-	=107-	=107-	=107-	=107-	=107-
2E/	.	0ryy	.	2G/	.	0rA	.
2AA/	iu-	.	.	2A/	.	.	.
4AA/	-di-	.	.	2E/	eſt	.	.
4BB/	.	.	.	.	.	.	.
4C/	.	.	.	2E/	cum	.	.
4D/	.	.	.	.	.	.	.
=108-	=108-	=108-	=108-	=108-	=108-	=108-	=108-
4E/	.	0ryy	.	2.G/	glo-	1rA	.
4F/	.	.	.	.	.	.	.
1G	.	.	.	.	.	.	.
.	.	.	.	4A/	.	.	.
.	.	.	.	2B\	-ri-	2r	.
4F\	.	.	.	2c\	-a	2A\	cum
*custos:F	*	*	*	*	*	*	*
4E\	.	.	.	.	.	.	.
!LO:LB:g=original	!	!	!	!	!	!	!
=109-	=109-	=109-	=109-	=109-	=109-	=109-	=109-
1F	-ca-	0ryy	.	2A\	iu-	2.c\	gl(o-
.	.	.	.	1c	-di-	.	.
.	.	.	.	.	.	4d\	-ri)-
2E\	-re	.	.	.	.	0e	-a
1A\	vi-	.	.	4B/	-ca-	.	.
.	.	.	.	4A/	-re	.	.
=110-	=110-	=110-	=110-	=110-	=110-	=110-	=110-
.	.	0ryy	.	2c\	.	.	.
2G\	-uos	.	.	2B\	.	.	.
2E\	et	.	.	2G/	.	2r	.
1F\	mor-	.	.	1A\	.	2A/	cu(m)
=111-	=111-	=111-	=111-	=111-	=111-	=111-	=111-
.	.	0ryy	.	.	.	2.c\	glo-
4E/	.	.	.	4G/	.	.	.
*	*	*	*	*	*	*custos:e	*
4D/	.	.	.	4F/	.	4d\	-ri-
!	!	!	!	!	!	!LO:LB:g=original	!
2C/	.	.	.	2E/	.	2e\	-a
2D/	.	.	.	2D/	.	2f\	iu-
=112-	=112-	=112-	=112-	=112-	=112-	=112-	=112-
1BB	-tu-	0ryy	.	2rF	.	2d\	-di-
.	.	.	.	1d	vi-	1f	-ca-
1AA	-os	.	.	.	.	.	.
.	.	.	.	2c\	-uos	4e\	-re
.	.	.	.	.	.	4d\	.
=113-	=113-	=113-	=113-	=113-	=113-	=113-	=113-
0rD	.	0ryy	.	2A\	et	2c\	.
.	.	.	.	1B	mor-	1d	.
.	.	.	.	4A/	.	2c\	vi-
*	*	*	*	*custos:F	*	*	*
.	.	.	.	4G/	.	.	.
!	!	!	!	!LO:PB:g=original	!	!	!
=114-	=114-	=114-	=114-	=114-	=114-	=114-	=114-
1D	vi-	0ryy	.	2F/	.	2A/	-uos
.	.	.	.	2F/	-tu-	2A/	et
2C/	-uos	.	.	2G/	-os	4c\	mor-
.	.	.	.	.	.	4B\	.
2AA/	et	.	.	2A/	.	4c\	.
.	.	.	.	.	.	4d\	.
=115-	=115-	=115-	=115-	=115-	=115-	=115-	=115-
2C/	mor-	0ryy	.	4G/	.	2e\	.
.	.	.	.	4F/	.	.	.
2D/	-tu-	.	.	4E/	.	1d	.
.	.	.	.	4D/	.	.	.
*lig	*	*	*	*	*	*	*
1AA	-os	.	.	1E	.	.	.
.	.	.	.	.	.	2c\	-tu-
=116-	=116-	=116-	=116-	=116-	=116-	=116-	=116-
1D	.	0ryy	.	0D	.	2d\	-os
.	.	.	.	.	.	1f	cu-
*Xlig	*	*	*	*	*	*	*
2r	.	.	.	.	.	.	.
1D\	cu-	.	.	.	.	2f\	-ius
=117-	=117-	=117-	=117-	=117-	=117-	=117-	=117-
.	.	0ryy	.	2rF	.	0f	re-
2D/	-ius	.	.	1A	cu-	.	.
1D	re-	.	.	.	.	.	.
.	.	.	.	2A/	-ius	.	.
=118-	=118-	=118-	=118-	=118-	=118-	=118-	=118-
*custos:F	*	*	*	*	*	*	*
0C	-gni	0ryy	.	2A/	re-	0e	-gni
.	.	.	.	2G/	.	.	.
.	.	.	.	1.c	-gni	.	.
!LO:LB:g=original	!	!	!	!	!	!	!
=119-	=119-	=119-	=119-	=119-	=119-	=119-	=119-
*	*	*	*	*	*	*custos:d	*
1.F	non	0ryy	.	.	.	1rf	.
.	.	.	.	2B\	non	.	.
!	!	!	!	!	!	!LO:PB:g=original	!
.	.	.	.	2A/	e-	1.d	cu-
2E\	.	.	.	2G/	-rit	.	.
=120-	=120-	=120-	=120-	=120-	=120-	=120-	=120-
2.D/	e-	0ryy	.	4F/	.	.	.
.	.	.	.	4E/	fi-	.	.
.	.	.	.	1A	.	2d\	-ius
4C/	-rit	.	.	.	.	.	.
1BB	fi-	.	.	.	.	1d	re-
.	.	.	.	2G/	.	.	.
=121-	=121-	=121-	=121-	=121-	=121-	=121-	=121-
1AA	-nis	0ryy	.	0A	-nis	1c	-gni
1.D	.	.	.	.	.	1.f	non
=122-	=122-	=122-	=122-	=122-	=122-	=122-	=122-
.	.	0ryy	.	1F	non	.	.
2C/	.	.	.	.	.	2e\	.
2BB/	.	.	.	1.B	e-	2d\	e-
2AA/	.	.	.	.	.	2c\	-rit
=123-	=123-	=123-	=123-	=123-	=123-	=123-	=123-
0GG	.	0ryy	.	.	.	0B	fi-
.	.	.	.	2A/	-rit	.	.
.	.	.	.	1G	fi-	.	.
=124-	=124-	=124-	=124-	=124-	=124-	=124-	=124-
*	*	*	*	*custos:B	*	*	*
!	!	!	!	!	!	!LO:N:vis=00	!
!LO:N:vis=00	!	!	!	!LO:N:vis=00	!	!	!
0D\;>	.	0ryy	.	0F;>	-nis	0A;>	-nis
!	!	!LO:PB:g=original	!	!LO:LB:g=original	!	!	!
*	*	*	*	*clefC5	*	*	*
=125-	=125-	=125-	=125-	=125-	=125-	=125-	=125-
1GG	Et	1D	Et	1B	Et	1d	Et
2GG/	in	2D/	in	2B\	in	2d\	in
1GG/	Spi-	1D/	Spi-	1B\	Spi-	1d\	Spi-
=126-	=126-	=126-	=126-	=126-	=126-	=126-	=126-
.	.	.	.	.	.	.	.
2GG/	-ri-	2D/	-ri-	2B\	-ri-	2d\	-ri-
2D/	-tum	2F/	-tum	2A\	-tum	1d	-tum
1D\	ſ(an)c-	1F/	ſanc-	1A\	ſ(an)c-	.	.
=127-	=127-	=127-	=127-	=127-	=127-	=127-	=127-
.	.	.	.	.	.	1.f	ſanc-
2D/	-t(u)m	2D/	.	2A\	-t(u)m	.	.
*	*	*	*	*custos:D	*	*	*
1.D	do-	2.F/	-tu(m)	0A	do-	.	.
.	.	.	.	.	.	2d\	-tu(m)
.	.	4E/	do-	.	.	.	.
=128-	=128-	=128-	=128-	=128-	=128-	=128-	=128-
.	.	4F/	.	.	.	1f	do-
.	.	4G/	.	.	.	.	.
*custos:BB	*	*	*	*	*	*	*
2AA/	-mi-	1A	.	.	.	.	.
*	*	*	*	*clefC4	*	*	*
!LO:LB:g=original	!	!	!	!	!	!	!
1BB	-num	.	.	1D	-mi-	1d	-mi-
.	.	2G/	-mi-	.	.	.	.
=129-	=129-	=129-	=129-	=129-	=129-	=129-	=129-
0AA	.	1A	-nu(m)	2E/	-num	2.c\	-nu(m)
.	.	.	.	2A/	.	.	.
*	*	*	*	*	*	*custos:e	*
.	.	.	.	.	.	4d\	.
!	!	!	!	!	!	!LO:LB:g=original	!
.	.	2r	.	2.c\	et	0e	.
.	.	2A/	(et)	.	.	.	.
.	.	.	.	4B/	vi-	.	.
=130-	=130-	=130-	=130-	=130-	=130-	=130-	=130-
1rD	.	1.c	vi-	4A/	-ui-	.	.
.	.	.	.	4G/	.	.	.
.	.	.	.	1A	-fi-	.	.
1D	et	.	.	.	.	1rA	.
.	.	2B/	-ui-	1d\	-can-	.	.
=131-	=131-	=131-	=131-	=131-	=131-	=131-	=131-
1.F	vi-	2.A/	-fi-	.	.	2rF	.
.	.	.	.	2c\	-tem	2A/	et
.	.	4G/	.	.	.	.	.
.	.	4F/	.	2A\	.	2.c\	vi-
.	.	4E/	.	.	.	.	.
2E\	-ui-	1G/	.	1c\	.	.	.
.	.	.	.	.	.	4d\	-ui-
=132-	=132-	=132-	=132-	=132-	=132-	=132-	=132-
2C/	-fi-	.	.	.	.	2e\	.
*	*	*custos:E	*	*	*	*	*
2D/	-can-	2F/	.	2B\	.	2d\	.
!	!	!LO:LB:g=original	!	!	!	!	!
1AA	-tem	1E	-can-	0A	.	2d\	-fi-
.	.	.	.	.	.	2c\	-can-
=133-	=133-	=133-	=133-	=133-	=133-	=133-	=133-
1D	.	1D	-tem	.	.	2d\	-tem
.	.	.	.	.	.	1f	Qui
*	*	*	*	*custos:d	*	*	*
2r	.	2rD	.	2r	.	.	.
!	!	!	!	!LO:LB:g=original	!	!	!
1D\	qui	1A\	Qui	1d\	qui	2f\	ex
=134-	=134-	=134-	=134-	=134-	=134-	=134-	=134-
.	.	.	.	.	.	0f	pa-
2D/	ex	2A/	ex	2d\	ex	.	.
1D	pa-	1A	p(at)-	1d	pa-	.	.
=135-	=135-	=135-	=135-	=135-	=135-	=135-	=135-
1E	-tre	1G	-re	2B\	-tre	2e\	-tre
.	.	.	.	1c	fi-	1e	fi-
2C/	fi-	1A	fi-	.	.	.	.
2D/	-li-	.	.	2A/	-li-	2d\	-li-
=136-	=136-	=136-	=136-	=136-	=136-	=136-	=136-
2D/	-o-	2F/	-li-	1B	-o-	1d	-o-
2BB/	-q(ue)	2G/	-o-	.	.	.	.
2C/	pro-	2E/	-q(ue)	2G/	-q(ue)	2c\	-q(ue)
2AA/	-ce-	2C/	pro-	1A\	p(ro)-	1e\	pro-
=137-	=137-	=137-	=137-	=137-	=137-	=137-	=137-
*	*	*lig	*	*	*	*	*
1BB	-dit	1D	-ce-	.	.	.	.
.	.	.	.	2G/	-ce-	1d	-ce-
*custos:D	*	*	*	*	*	*	*
1AA	.	1E	.	1A	-dit	.	.
.	.	.	.	.	.	2c\	.
*	*	*Xlig	*	*	*	*	*
!LO:PB:g=original	!	!	!	!	!	!	!
=138-	=138-	=138-	=138-	=138-	=138-	=138-	=138-
*	*	*	*	*	*	*lig	*
1D	.	2D/	-dit	2r	.	1d	-dit
.	.	2D/	Qui	1d	qui	.	.
0r	.	1F	cum	.	.	1A	.
.	.	.	.	2c\	cum	.	.
*	*	*	*	*	*	*Xlig	*
=139-	=139-	=139-	=139-	=139-	=139-	=139-	=139-
*	*	*	*	*	*	*custos:d	*
.	.	1G	p(at)-	1B	p(at)-	1r	.
!	!	!	!	!	!	!LO:LB:g=original	!
2r	.	1D	-re	1A	-re	2rd	.
2D/	et	.	.	.	.	1d\	et
=140-	=140-	=140-	=140-	=140-	=140-	=140-	=140-
1F	fi-	2rD	.	2rd	.	.	.
.	.	1A	et	1f	et	2c\	Fi-
1G	-li-	.	.	.	.	2B/	-li-
*	*	*custos:F	*	*	*	*	*
.	.	2G/	fi-	1e\	.	2B/	-o
!	!	!LO:LB:g=original	!	!	!	!	!
=141-	=141-	=141-	=141-	=141-	=141-	=141-	=141-
1D	-o	2.F/	.	.	.	2A/	ſi-
.	.	.	.	1d	fi-	2A/	-mul
.	.	8E/L	.	.	.	.	.
.	.	8D/J	.	.	.	.	.
2rBB	.	2F/	.	.	.	2A/	a-
2AA/	ſi-	2E/	-li-	2c\	-li-	2A/	-do-
=142-	=142-	=142-	=142-	=142-	=142-	=142-	=142-
2BB/	-mul	1D	-o	1d	-o	2G/	-ra-
2GG/	a-	.	.	.	.	2.B/	-tur
2.D/	-do-	1rF	.	2rd	.	.	.
.	.	.	.	.	.	4A/	.
.	.	.	.	2d\	et	1A\	.
4C/	-ra-	.	.	.	.	.	.
=143-	=143-	=143-	=143-	=143-	=143-	=143-	=143-
1BB	-tur	2rD	.	2d\	con-	.	.
.	.	2D/	et	2d\	-glo-	2G/	.
*	*	*	*	*custos:e	*	*	*
1AA	.	2E/	con-	2c\	-ri-	2A/	.
!	!	!	!	!LO:LB:g=original	!	!	!
.	.	2C/	-glo-	1e\	-fi-	1c\	et
=144-	=144-	=144-	=144-	=144-	=144-	=144-	=144-
1rBB	.	2.G/	-ri-	.	.	.	.
.	.	.	.	1d	-ca-	2B\	con-
.	.	4F/	-fi-	.	.	.	.
1AA	qui	1E	-ca-	.	.	2.A/	-glo-
.	.	.	.	2c\	-tur	.	.
.	.	.	.	.	.	4G/	.
=145-	=145-	=145-	=145-	=145-	=145-	=145-	=145-
1D	lo-	1D	-tur	2d\	.	4F/	.
.	.	.	.	.	.	4E/	.
.	.	.	.	2D/	qui	2F/	-ri-
2C/	-cu-	2rD	.	1G	lo-	4E/	-fi-
.	.	.	.	.	.	4D/	.
2BB/	.	2D/	Qui	.	.	1d\	-ca-
=146-	=146-	=146-	=146-	=146-	=146-	=146-	=146-
2AA/	-tus	1A	lo-	2F/	-cu-	.	.
*	*	*	*	*	*	*custos:d	*
2AA/	eſt	.	.	2E/	-tus	2c\	.
*	*	*	*	*	*	*lig	*
!	!	!	!	!	!	!LO:LB:g=original	!
2BB/	per	2G/	-cu-	1D	eſt	1d	.
1D\	.	2F/	-tus	.	.	.	.
=147-	=147-	=147-	=147-	=147-	=147-	=147-	=147-
.	.	2E/	e(st)	2rF	.	1e	.
*custos:D	*	*	*	*	*	*	*
2C/	pro-	2E/	per	2G/	et	.	.
*lig	*	*	*	*	*	*Xlig	*
!LO:LB:g=original	!	!	!	!	!	!	!
1D	-phe-	2F/	p(ro)-	1d	u-	1A	-tur
.	.	1A\	-phe-	.	.	.	.
=148-	=148-	=148-	=148-	=148-	=148-	=148-	=148-
1E	.	.	.	2c\	-nam	1rA	.
*	*	*custos:c	*	*	*	*	*
.	.	2G/	-tas	2B\	.	.	.
*Xlig	*	*	*	*	*	*	*
!	!	!LO:LB:g=original	!	!	!	!	!
1AA	-tas	1c	.	2A/	ſanc-	2rF	.
.	.	.	.	2A/	-tam	2E/	et
=149-	=149-	=149-	=149-	=149-	=149-	=149-	=149-
1rBB	.	2d\	.	2B/	ca-	1G	u-
.	.	2B/	.	1d	-tho-	.	.
2rBB	.	1A	.	.	.	2F/	-na(m)
2AA/	et	.	.	2c\	-li-	2E/	s(an)c-
=150-	=150-	=150-	=150-	=150-	=150-	=150-	=150-
2.D/	a-	2rF	.	1d	-ca(m)	2D/	-tam
.	.	2D/	et	.	.	2A\	ca-
4D/	-po-	.	.	.	.	.	.
2C/	-ſto-	2.G/	a-	2rD	.	2c\	-tho-
2BB/	-li-	.	.	2D/	et	1d\	-li-
.	.	4G/	-po-	.	.	.	.
=151-	=151-	=151-	=151-	=151-	=151-	=151-	=151-
2AA/	-ca(m)	2F/	 sto-	2.A/	a-	.	.
2AA/	ec-	2E/	-li-	.	.	2c\	-cam
.	.	.	.	4A/	-po-	.	.
2BB/	-cle-	2D/	-cam	2G/	-ſto-	1d	.
*	*	*	*	*custos:E	*	*	*
1D\	-ſi-	2A\	ec-	2F/	-li-	.	.
!	!	!	!	!LO:PB:g=original	!	!	!
=152-	=152-	=152-	=152-	=152-	=152-	=152-	=152-
.	.	2B\	-cle-	2E/	-cam	2r	.
2C/	-am	2c\	-ſi-	2E/	Ec-	2G/	et
*lig	*	*	*	*	*	*	*
1D	.	1A	-am	2F/	-cl(e-	2.d\	a-
.	.	.	.	1A\	.	.	.
.	.	.	.	.	.	4d\	-po-
=153-	=153-	=153-	=153-	=153-	=153-	=153-	=153-
1E	.	2rF	.	.	.	2c\	 sto-
.	.	1E	ec-	2G/	-s)i-	2B\	-li-
*Xlig	*	*	*	*	*	*	*
2C/	.	.	.	1A	-am	2A/	-cam
2D/	.	1A\	-cl(e-	.	.	2A/	ec-
=154-	=154-	=154-	=154-	=154-	=154-	=154-	=154-
*	*	*	*	*	*	*custos:d	*
1BB	.	.	.	2rD	.	2B/	-cle-
!	!	!	!	!	!	!LO:PB:g=original	!
.	.	2G/	-s)i-	2D/	Con-	1d	.
2AA/	.	0A	-am	2E/	-fi-	.	.
2AA/	.	.	.	2E/	-te-	2c\	-ſi-
=155-	=155-	=155-	=155-	=155-	=155-	=155-	=155-
2.D/	.	.	.	2F/	-or	0d	-a(m)
.	.	.	.	2F/	u-	.	.
4C/	.	.	.	.	.	.	.
*custos:AA	*	*	*	*	*	*	*
1BB	.	2rF	.	1G	-num	.	.
.	.	2D/	con-	.	.	.	.
!LO:LB:g=original	!	!	!	!	!	!	!
=156-	=156-	=156-	=156-	=156-	=156-	=156-	=156-
1AA	.	2E/	-fi-	2r	.	1c	.
*	*	*custos:F	*	*	*	*	*
.	.	2E/	-te-	1A	con-	.	.
!	!	!LO:PB:g=original	!	!	!	!	!
2rBB	.	2F/	-or	.	.	0r	.
2D/	con-	2F/	v-	2A/	-fi-	.	.
=157-	=157-	=157-	=157-	=157-	=157-	=157-	=157-
2E/	-fi-	1G	-num	2B/	-te-	.	.
2E/	-te-	.	.	2c\	-or	.	.
2F\	-or	1rA	.	2c\	u-	2r	.
2F\	v-	.	.	1d\	-nu(m)	2A/	con-
=158-	=158-	=158-	=158-	=158-	=158-	=158-	=158-
4G\	-num	0rA	.	.	.	2B/	-fi-
4F\	.	.	.	.	.	.	.
4E/	.	.	.	2.G/	bap-	2B/	-te-
4D/	.	.	.	.	.	.	.
2C/	ba-	.	.	.	.	2c\	-or
.	.	.	.	4E/	.	.	.
4BB/	.	.	.	1A\	-tiſ-	2c\	v-
4AA/	.	.	.	.	.	.	.
=159-	=159-	=159-	=159-	=159-	=159-	=159-	=159-
2BB/	.	2rF	.	.	.	2d\	-num
2BB/	-ptiſ-	2D/	Con-	2G/	-ma	2d\	bap-
*lig	*	*	*	*	*	*	*
1AA	-ma	2E/	-fi-	0A	.	4c\	-tiſ-
.	.	.	.	.	.	4d\	.
.	.	2E/	-te-	.	.	4e\	.
.	.	.	.	.	.	4c\	.
=160-	=160-	=160-	=160-	=160-	=160-	=160-	=160-
1D	.	2F/	-or	.	.	4d\	.
.	.	.	.	.	.	4e\	.
.	.	2F/	v-	.	.	4f\	.
.	.	.	.	.	.	4e\	.
*Xlig	*	*	*	*	*	*	*
*	*	*	*	*custos:D	*	*	*
0rBB	.	2G/	-num	1rA	.	4d\	.
.	.	.	.	.	.	4c\	.
.	.	1A\	bap-	.	.	4B/	.
.	.	.	.	.	.	4A/	.
!	!	!	!	!LO:LB:g=original	!	!	!
=161-	=161-	=161-	=161-	=161-	=161-	=161-	=161-
.	.	.	.	2D/	in	1B	.
.	.	2G/	-tiſ-	2E/	re-	.	.
1AA	in	1A	-ma	2E/	-miſ-	1A	-ma
.	.	.	.	2F/	-si-	.	.
=162-	=162-	=162-	=162-	=162-	=162-	=162-	=162-
2BB/	re-	2rF	.	2F/	-o-	0r	.
2BB/	-miſ-	2D/	in	2G/	-nem	.	.
2C/	-si-	2E/	re-	2G/	pec-	.	.
2C/	-o-	2E/	-mis-	2.A/	-ca-	.	.
=163-	=163-	=163-	=163-	=163-	=163-	=163-	=163-
2D/	-nem	2F/	-ſi-	.	.	2r	.
.	.	.	.	4G/	.	.	.
*custos:GG	*	*	*	*	*	*custos:B	*
2D/	pec-	2F/	-o-	2F/	-to-	2A/	in
!LO:LB:g=original	!	!	!	!	!	!LO:LB:g=original	!
2GG/	-ca-	2G/	-nem	2E/	-ru(m)	2B\	re-
2BB/	-to-	2G/	pec-	2D/	.	2B\	-mis-
=164-	=164-	=164-	=164-	=164-	=164-	=164-	=164-
*lig	*	*	*	*	*	*	*
1AA	-rum	1.A	-ca-	1E	.	2c\	-ſi-
.	.	.	.	.	.	2c\	-o-
1D	.	.	.	2D/	et	2d\	-nem
.	.	1d\	-to-	2F/	.	2d\	pec-
*Xlig	*	*	*	*	*	*	*
=165-	=165-	=165-	=165-	=165-	=165-	=165-	=165-
1r	.	.	.	2G/	ex-	1e	-ca-
*	*	*custos:d	*	*	*	*	*
.	.	2c\	-ru(m)	2A/	-pec-	.	.
!	!	!LO:LB:g=original	!	!	!	!	!
2r	.	1d	.	2D/	-to	1f	-to-
2F\	et	.	.	1d\	re-	.	.
=166-	=166-	=166-	=166-	=166-	=166-	=166-	=166-
2G\	ex-	1r	.	.	.	1e	-rum
2A\	-pec-	.	.	2c\	-ſur-	.	.
1D	-to	2r	.	1f	-rec-	2rd	.
.	.	2F/	et	.	.	1d\	et
=167-	=167-	=167-	=167-	=167-	=167-	=167-	=167-
1rD	.	2G/	ex-	2e\	-ti-	.	.
.	.	2A/	-pec-	1f	-o-	2c\	ex-
2r	.	2D/	-to	.	.	4d\	-pe-
.	.	.	.	.	.	4c\	.
2C/	et	1A\	re-	2e\	-(ne)m	4B/	.
.	.	.	.	.	.	4A/	.
=168-	=168-	=168-	=168-	=168-	=168-	=168-	=168-
2D/	ex-	.	.	2d\	.	1B	.
2E/	-pec-	2G/	-ſur-	4c\	.	.	.
.	.	.	.	4B\	.	.	.
!	!	!	!	!LO:LB:g=original	!	!	!
2AA/	-to	2.A/	-rec-	2c\	.	2A/	-cto
2AA/	re-	.	.	2.A\	mor-	2c\	Et
.	.	4G/	-ti-	.	.	.	.
=169-	=169-	=169-	=169-	=169-	=169-	=169-	=169-
2D/	-ſur-	2F/	  o-	.	.	2d\	ex-
.	.	.	.	4B\	.	.	.
2C/	-rec-	2E/	-(ne)m	2c\	-tu-	2e\	-pec-
2.D/	-ti-	2rD	.	2F/	-o-	1A	-to
.	.	1F/	mor-	1A\	-rum	.	.
4C/	-o-	.	.	.	.	.	.
=170-	=170-	=170-	=170-	=170-	=170-	=170-	=170-
1BB	-(ne)m	.	.	.	.	2r	.
.	.	4E/	.	2G/	.	1d	re-
.	.	4D/	.	.	.	.	.
*lig	*	*	*	*	*	*	*
1AA	.	2E/	-tu-	0A	.	.	.
*	*	*	*	*	*	*custos:f	*
.	.	2E/	-o-	.	.	2c\	-ſur-
!	!	!	!	!	!	!LO:LB:g=original	!
=171-	=171-	=171-	=171-	=171-	=171-	=171-	=171-
1D	.	2D/	-rum	.	.	2.f\	-rec-
.	.	2F/	re-	.	.	.	.
.	.	.	.	.	.	4e\	-ti-
*Xlig	*	*	*	*	*	*	*
1r	.	2G/	-ſur-	1rA	.	2d\	-o-
.	.	2.A/	-rec-	.	.	2c\	-nem
=172-	=172-	=172-	=172-	=172-	=172-	=172-	=172-
2r	.	.	.	1F	re-	2d\	mor-
.	.	4G/	-ti-	.	.	.	.
*custos:C	*	*	*	*	*	*	*
1D	re-	2A/	-o-	.	.	2d\	-tu-
*	*	*custos:c	*	*	*	*	*
.	.	2B/	-(ne)m	2G/	-ſur-	1e	-o-
!LO:PB:g=original	!	!LO:LB:g=original	!	!	!	!	!
2C/	-ſur-	2.c\	.	2.A/	-rec-	.	.
=173-	=173-	=173-	=173-	=173-	=173-	=173-	=173-
2.F\	-rec-	.	.	.	.	2A/	-ru(m)
.	.	4B\	.	4G/	-ti-	.	.
.	.	4A/	.	2A/	-o-	2c\	.
4E/	-ti-	4G/	.	.	.	.	.
2D/	-o-	2F/	.	2B/	-(ne)m	2d\	.
2C/	-nem	2E/	.	2c/	.	2e\	.
=174-	=174-	=174-	=174-	=174-	=174-	=174-	=174-
2D/	mor-	2rF	.	2A/	.	1f	.
2D/	-tu-	2A/	mor-	2d\	mor-	.	.
1E	-o-	2A/	-tu-	2B\	-tu-	0e	.
.	.	2G/	-o-	2B\	-o-	.	.
=175-	=175-	=175-	=175-	=175-	=175-	=175-	=175-
1AA	-r(um)	0A	-rum	1c	-ru(m)	.	.
!LO:TX:t=P:problem=signum repetitionis	!	!	!	!LO:TX:t=P:problem=signum repetitionis	!	!LO:TX:t=P:problem=signum repetitionis	!
2rBB	.	.	.	2rd	.	2r	.
2AA/	et	.	.	2c\	et	2E/	Et
=176-	=176-	=176-	=176-	=176-	=176-	=176-	=176-
!	!	!LO:TX:t=P:problem=signum repetitionis	!	!	!	!	!
2AA/	vi-	2r	.	2c\	vi-	2E/	vi-
2AA/	-tam	2A/	Et	2c\	-tam	2E/	-tam
1D	ven-	2A/	vi-	2d\	ven-	2F/	ven-
*	*	*	*	*custos:e	*	*	*
.	.	2A/	-tam	2d\	-tu	2F/	-tu-
!	!	!	!	!LO:LB:g=original	!	!	!
=177-	=177-	=177-	=177-	=177-	=177-	=177-	=177-
2C/	-tu-	1c	ven-	00e	.	2G/	-ri
2AA/	-ri	.	.	.	.	1A	ſe-
1E	ſe-	1B	-tu-	.	.	.	.
*	*	*	*	*	*	*custos:A	*
.	.	.	.	.	.	2G/	-cu-
!	!	!	!	!	!	!LO:LB:g=original	!
=178-	=178-	=178-	=178-	=178-	=178-	=178-	=178-
0.AA	-cu-	1A	-ri	.	.	2A/	.
.	.	.	.	.	.	2A/	-li
*	*	*lig	*	*	*	*	*
.	.	1A	ſe-	.	.	2.c\	.
.	.	.	.	.	.	4B/	.
=179-	=179-	=179-	=179-	=179-	=179-	=179-	=179-
.	.	1.c	.	1e	.	4A/	.
.	.	.	.	.	.	4G/	.
*	*	*	*	*	*	*lig	*
.	.	.	.	.	.	1A	.
*lig	*	*	*	*	*	*	*
1D	-li	.	.	1r	.	.	.
*	*	*Xlig	*	*	*	*	*
.	.	2B\	-cu-	.	.	1d\	.
*	*	*	*	*	*	*Xlig	*
=180-	=180-	=180-	=180-	=180-	=180-	=180-	=180-
1.F	.	2.A/	-li	2r	.	.	.
*	*	*	*	*lig	*	*	*
.	.	.	.	1A	.	2c\	.
.	.	4G/	.	.	.	.	.
.	.	4F/	.	.	.	2d\	.
*	*	*custos:G	*	*	*	*	*
.	.	4E/	.	.	.	.	.
*	*	*	*	*	*	*	*
*Xlig	*	*	*	*	*	*	*
!	!	!LO:LB:g=original	!	!	!	!	!
2E\	.	1G/	.	1c\	.	1e\	.
*	*	*	*	*Xlig	*	*	*
=181-	=181-	=181-	=181-	=181-	=181-	=181-	=181-
2C/	A-	.	.	.	.	.	.
2D/	.	2F/	A-	2B\	.	1d	A-
1AA	-men	1E	-men.	2A/	.	.	.
.	.	.	.	2A/	.	2c\	-men.
=182-	=182-	=182-	=182-	=182-	=182-	=182-	=182-
*	*	*	*	*	*	*custos:E	*
!LO:N:vis=00	!	!LO:N:vis=00	!	!LO:N:vis=00	!	!LO:N:vis=00	!
1D\;>	.	1D;>	.	1F;>	.	1d;<	.
*	*	*	*	*custos:A	*	*	*
!	!	!	!	!	!	!LO:TX:t=P:problem=signum repetitionis	!
!	!	!	!	!LO:N:vis=1	!	!LO:PB:g=original	!
!LO:N:vis=1	!	!	!	!	!	!LO:N:vis=1	!
2D	.	1D	.	2F	.	2d	.
!LO:TX:t=P:problem=signum repetitionis	!	!	!	!	!	!	!
2AA/	et	.	.	2c\	et	2E/	Et
=183-	=183-	=183-	=183-	=183-	=183-	=183-	=183-
!	!	!LO:TX:t=P:problem=signum repetitionis	!	!	!	!	!
!	!	!LO:N:vis=1	!	!	!	!	!
2AA/	vi-	2rF	.	2c\	vi-	2E/	vi-
2AA/	-tam	2A/	Et	2c\	-tam	2E/	-tam
1D	ven-	2A/	vi-	2d\	ven-	2F/	ven-
*	*	*	*	*custos:e	*	*	*
.	.	2A/	-tam	2d\	-tu	2F/	-tu-
!	!	!	!	!LO:LB:g=original	!	!	!
=184-	=184-	=184-	=184-	=184-	=184-	=184-	=184-
2C/	-tu-	1c	ven-	00e	.	2G/	-ri
2AA/	-ri	.	.	.	.	1A	ſe-
1E	ſe-	1B	-tu-	.	.	.	.
*	*	*	*	*	*	*custos:A	*
.	.	.	.	.	.	2G/	-cu-
!	!	!	!	!	!	!LO:LB:g=original	!
=185-	=185-	=185-	=185-	=185-	=185-	=185-	=185-
0.AA	-cu-	1A	-ri	.	.	2A/	.
.	.	.	.	.	.	2A/	-li
*	*	*lig	*	*	*	*	*
.	.	1A	ſe-	.	.	2.c\	.
.	.	.	.	.	.	4B/	.
=186-	=186-	=186-	=186-	=186-	=186-	=186-	=186-
.	.	1.c	.	1e	.	4A/	.
.	.	.	.	.	.	4G/	.
*	*	*	*	*	*	*lig	*
.	.	.	.	.	.	1A	.
*lig	*	*	*	*	*	*	*
1D	-li	.	.	1r	.	.	.
*	*	*Xlig	*	*	*	*	*
.	.	2B\	-cu-	.	.	1d\	.
*	*	*	*	*	*	*Xlig	*
=187-	=187-	=187-	=187-	=187-	=187-	=187-	=187-
1.F	.	2.A/	-li	2r	.	.	.
*	*	*	*	*lig	*	*	*
.	.	.	.	1A	.	2c\	.
.	.	4G/	.	.	.	.	.
.	.	4F/	.	.	.	2d\	.
*	*	*custos:G	*	*	*	*	*
.	.	4E/	.	.	.	.	.
*	*	*	*	*	*	*	*
*Xlig	*	*	*	*	*	*	*
!	!	!LO:LB:g=original	!	!	!	!	!
2E\	.	1G/	.	1c\	.	1e\	.
*	*	*	*	*Xlig	*	*	*
=188-	=188-	=188-	=188-	=188-	=188-	=188-	=188-
2C/	A-	.	.	.	.	.	.
2D/	.	2F/	A-	2B\	.	1d	A-
1AA	-men	1E	-men.	2A/	.	.	.
.	.	.	.	2A/	.	2c\	-men.
=189-	=189-	=189-	=189-	=189-	=189-	=189-	=189-
!LO:N:vis=00	!	!LO:N:vis=00	!	!LO:N:vis=00	!	!LO:N:vis=00	!
1D\;>	.	1D;>	.	1F;>	.	1d;<	.
!	!	!LO:N:vis=1	!	!	!	!	!
1D	.	2D	.	1F	.	1d	.
!	!	!LO:N:vis=1	!	!	!	!	!
.	.	2rF	.	.	.	.	.
=-	=-	=-	=-	=-	=-	=-	=-
*-	*-	*-	*-	*-	*-	*-	*-
!!!system-decoration: [(s1,s2,s3,s4)]
!!!RDF**kern: > = above
!!!RDF**kern: < = below
!!!ENC: Mateusz Solarz
!!!END: 2022-02-21
!!!EED: Antoni Szymański
!!!EST: 2022-02-27
